fs/desktop_20_regular.svg

<svg viewBox="0 0 20 20" fill="none" xmlns="http://www.w3.org/2000/svg" height="1em" width="1em">
  <path d="M4 2C2.89543 2 2 2.89543 2 4V13C2 14.1046 2.89543 15 4 15H7V17H5.5C5.22386 17 5 17.2239 5 17.5C5 17.7761 5.22386 18 5.5 18H14.5C14.7761 18 15 17.7761 15 17.5C15 17.2239 14.7761 17 14.5 17H13V15H16C17.1046 15 18 14.1046 18 13V4C18 2.89543 17.1046 2 16 2H4ZM12 15V17H8V15H12ZM3 4C3 3.44772 3.44772 3 4 3H16C16.5523 3 17 3.44772 17 4V13C17 13.5523 16.5523 14 16 14H4C3.44772 14 3 13.5523 3 13V4Z" fill="#212121"/>
</svg>

<svg viewBox="0 0 20 20" fill="none" xmlns="http://www.w3.org/2000/svg" height="1em" width="1em">
  <path d="M4 2a2 2 0 0 0-2 2v9a2 2 0 0 0 2 2h3v2H5.5a.5.5 0 0 0 0 1h9a.5.5 0 0 0 0-1H13v-2h3a2 2 0 0 0 2-2V4a2 2 0 0 0-2-2H4Zm8 13v2H8v-2h4ZM3 4a1 1 0 0 1 1-1h12a1 1 0 0 1 1 1v9a1 1 0 0 1-1 1H4a1 1 0 0 1-1-1V4Z" fill="#212121"/>
</svg>
